X:1
T:The Haven of Rest
T:The Haven of Rest
T:George D. Moore
T:Henry Lake Gilmour, 1890
T:Public Domain Courtesy of the Cyber Hymnal™
T:Public Domain Courtesy of the Cyber Hymnal™
C:George D. Moore
Z:Public Domain
Z:Courtesy of the Cyber Hymnal™
%%score ( 1 2 ) 3
L:1/8
M:6/4
K:Ab
V:1 treble 
V:2 treble 
V:3 bass 
V:1
 [CE]2 | [Ec]3 [Ec] [Ec]2 [Ec]3 [EB] [EA]2 | [FA]3 [DF] [DA]2 [CE]4 [CE]2 | %3
w: 1.~My|soul in sad ex- ile was|out on life’s sea, So|
w: 2.~I|yield- ed my- self to His|ten- der em- brace, In|
w: 3.~The|song of my soul, since the|Lord made me whole, Has|
w: 4.~How|pre- cious the thought that we|all may re- cline, Like|
w: 5.~O|come to the Sav- ior, He|pa- tient- ly waits To|
 [CA]3 [CA] [CA]2 [EA]2 [EB]2 [Ec]2 | [EB]8 (EE) | [Ec] [Ec]3 [=Ec]2 [Fc]3 [EB] [FA]2 | %6
w: bur- dened with sin and dis-|tressed, Till~I *|heard a sweet voice, say- ing,|
w: faith tak- ing hold of the|Word, My *|fet- ters fell off, and I|
w: been the old sto- ry so|blest, Of *|Je- sus, Who’ll save who- so-|
w: John, the be- lov- èd so|blest, On *|Je- sus’ strong arm, where no|
w: save by His pow- er di-|vine; Come, *|an- chor your soul in the|
 [FA]3 [DF] [DA]2 [CE]4 (EE) | [CA] [CA]3 [CA]2 [Ec]4 [DB][DB] | [CA]6- [CA]4 ||"^Refrain" [CA]2 | %10
w: “Make Me your choice”; And~I *|en- tered the “Ha- ven of|Rest”! *||
w: an- chored my soul; The *|“Ha- ven of Rest” is my|Lord. *||
w: ev- er will have A *|home in the “Ha- ven of|Rest.” *|I’ve|
w: tem- pest can harm, Se- *|cure in the “Ha- ven of|Rest.” *||
w: “Ha- ven of Rest,” And *|say, “My Be- lov- èd is|mine.” *||
 [Fd]3 [Fd] [Fd]2 [Fd]4 [Fd][Fd] | [Ec]3 [Ec] [Ec]2 [Ec]4 ([Ec][DB]) | %12
w: ||
w: ||
w: an- chored my soul in the|“Ha- ven of Rest,” I’ll *|
w: ||
w: ||
 [CA]3 [CA] [CA]2 (A2 B2) [Ec]2 | [EB]8 (EE) | [Ec] [Ec]3 [=Ec]2 [Fc]3 [EB] [FA]2 | %15
w: |||
w: |||
w: sail the wide seas * no|more; The *|tem- pest may sweep o- ver|
w: |||
w: |||
 [FA]3 [DF] [DA]2 [CE]4 (EE) | [CA] [CA]3 [CA]2 [Ec]4 [DB][DB] | [CA]6- [CA]4 |] %18
w: |||
w: |||
w: wild, storm- y, deep, In *|Je- sus I’m safe ev- er-|more. *|
w: |||
w: |||
V:2
 x2 | x12 | x12 | x12 | x10 | x12 | x12 | x12 | x10 || x2 | x12 | x12 | x6 E4 x2 | x10 | x12 | %15
 x12 | x12 | x10 |] %18
V:3
 [A,,A,]2 | [A,,A,]3 [A,,A,] [A,,A,]2 [A,,A,]3 [B,,G,] [C,A,]2 | %2
 [D,A,]3 [D,A,] [F,A,]2 A,4 [A,,A,]2 | [A,,E,]3 [A,,E,] [A,,E,]2 [C,A,]2 [B,,G,]2 [A,,A,]2 | %4
 [E,G,]8 E,E, | [A,,A,] [A,,A,]3 [C,G,]2 [F,A,]3 [F,B,] [F,C]2 | %6
 [D,D]3 [D,A,] [F,A,]2 A,4 [C,A,][C,A,] | [E,A,] [E,A,]3 [E,A,]2 [E,A,]4 [E,G,][E,G,] | %8
 [A,,E,A,]6- [A,,E,A,]4 || A,2 | [D,A,]3 [D,A,] [D,A,]2 [D,A,]4 [D,A,][D,A,] | %11
 [A,,A,]3 [A,,A,] [A,,A,]2 [A,,A,]4 [A,,A,]2 | %12
 [A,,A,]3 [A,,A,] [A,,A,]2 [C,A,]2 [B,,G,]2 [A,,A,]2 | [E,G,]8 (E,E,) | %14
 [A,,A,] [A,,A,]3 [C,G,]2 [F,A,]3 [F,B,] [F,C]2 | [D,D]3 [D,A,] [F,A,]2 A,4 ([C,A,][C,A,]) | %16
 [E,A,] [E,A,]3 [E,A,]2 [E,A,]4 [E,G,][E,G,] | [A,,E,A,]6- [A,,E,A,]4 |] %18

